X:1
T:Leaving All to Follow Jesus
T:Charles Hutchinson Gabriel
T:Leaving All to Follow Jesus
T:Public Domain
T:Public Domain
T:Public Domain
C:Charles Hutchinson Gabriel
Z:Public Domain
%%score ( 1 2 ) ( 3 4 )
L:1/8
M:9/8
K:Eb
V:1 treble 
V:2 treble 
V:3 bass 
V:4 bass 
V:1
 (G^F)[EG] | [EB]3 [EG]3 (AB)[Ec] | [EB]3 [Ge]3 ([EG][GB])[Ge] | [Bd]2 [Ac] [GB]3 [FA]3 | %4
w: 1.~Leav- * ing|to fol- low * Je-|Turn- ing from * the|world a- way, Step-|
w: 2.~Naught * re-|ing, on the * al-|All I lay, * and|wait the hour When|
w: 3.~Tak- * ing|the cross of * Je-|Glad for Him * to|suf- fer shame, All|
w: 4.~Praise * His|cious name for- * ev-|That His blood * hath|made me free! Now|
 [EG]6 (G^F)[EG] | [EB]3 [EG]3 (AB)[Ec] | [EB]3 [Ge]3 ([EG][GB])[Ge] | [Fd]2 [Fc] [FB]3 [E=A]3 | %8
w: ping out * up-|the prom- ise, * All|have is His * to-|day. * * *|
w: the fire * from|de- scend- ing * Shall|test His glor- * ious|pow’r. * * *|
w: my gain * I|but loss- es * For|glor- y of * His|name. Leav- ing all|
w: my soul * shall|to tell it, * Thro’|long e- ter- * ni-|ty. * * *|
 [DB]6 ||"^Refrain" (cd)e | (A2 A F2) F (Bc)[Ad] | (G2 G) (E2 E) (Bc)B | [GB]2 [DF] (G2 G) (F2 F) | %13
w: |||||
w: |||||
w: to|fol- * low|Je- * * sus, Turn- * ing|a- * way, * Step- * ping|on His prom- * ise, *|
w: |||||
 (E2 E [EG]3) (cd)e | (A2 A F2) F (Bc)[Ad] | (G2 G E2) E (Bc)[EB] | (BA)E [EG]3 [DF]3 | E6 |] %18
w: |||||
w: |||||
w: have * * is * His|day. * * * * * *||||
w: |||||
V:2
 E2 x | x6 E2 x | x9 | x9 | x6 E2 x | x6 E2 x | x9 | x9 | x6 || x3 | d3 A3 A2 x | c3 G3 x3 | %12
w: all|sus,|||on|I|||||||
w: serv-|tar|||Heaven|at-|||||||
w: up|sus,|||count|the|||||from the world|out up-|
w: pre-|er|||joy|the|||||||
 x3 B3 A3 | G3- x6 | d3 A3 A2 x | c3 G3 E2 x | E2 E x6 | E6 |] %18
w: ||||||
w: ||||||
w: All I|to-|||||
w: ||||||
V:3
 (B,=A,)[E,B,] | [E,G,]3 [E,B,]3 (CG,)[E,A,] | [E,G,]3 [E,B,]3 [E,B,]2 [E,B,] | %3
 [B,,B,]2 [B,,B,] [B,,B,]3 [B,,B,]3 | [E,B,]6 (B,=A,)[E,B,] | [E,G,]3 [E,B,]3 (CG,)[E,A,] | %6
 [E,G,]3 [E,B,]3 [E,B,]2 [E,B,] | [F,B,]2 [F,E] [F,D]3 [F,C]3 | [B,,B,]6 || z3 | %10
 [B,,F]2 [B,,F] [B,,D]2 [B,,D] [B,,D]2 [B,,F] | [E,E]2 [E,E] [E,B,]2 [E,B,] z3 | %12
 [B,,B,]2 [B,,B,] [B,,B,]2 [B,,B,] [B,,B,]2 [B,,B,] | [E,B,]2 [E,B,] [E,B,]3 z3 | %14
 [B,,F]2 [B,,F] [B,,D]2 [B,,D] [B,,D]2 [B,,F] | [E,E]2 [E,E] [E,B,]2 [D,B,] [=D,_D]2 [E,D] | %16
 [A,,C]2 [A,,C] [B,,B,]3 [B,,A,]3 | [E,G,]6 |] %18
V:4
 E,2 x | x6 E,2 x | x9 | x9 | x6 E,2 x | x6 E,2 x | x9 | x9 | x6 || x3 | x9 | x9 | x9 | x9 | x9 | %15
 x9 | x9 | x6 |] %18

